src/resources/images/icons/chat-bubble.svg

<svg width="40" height="40" viewBox="0 0 40 40" fill="none" xmlns="http://www.w3.org/2000/svg">
<g id="Frame 1187">
<path id="Vector" d="M27.688 26.7552C29.8803 26.7552 31.667 24.9512 31.667 22.7333V9.02187C31.667 6.80591 29.8822 5 27.688 5L8.14599 5.02967C5.95365 5.02967 4.16699 6.83369 4.16699 9.05154V22.763C4.16699 24.9789 5.95179 26.7848 8.14599 26.7848H8.8356L8.69915 29.0008C8.37886 32.5424 10.5263 31.8363 11.8139 30.9317C13.3768 29.8339 14.6667 28.4399 15.6856 26.7536L27.688 26.7552ZM12.0957 17.3488C10.1817 17.3176 10.1817 14.4377 12.0957 14.4065C14.0097 14.4377 14.0097 17.3176 12.0957 17.3488ZM16.6369 15.8776C16.6678 13.943 19.517 13.943 19.5479 15.8776C19.517 17.8123 16.6678 17.8123 16.6369 15.8776ZM24.0891 17.3488C22.1751 17.3176 22.1751 14.4377 24.0891 14.4065C26.0031 14.4377 26.0031 17.3176 24.0891 17.3488Z" fill="#334AFF"/>
<path id="Vector_2" d="M33.822 13.3354C32.7624 13.2094 32.5472 14.7683 33.5946 14.9383C34.4237 15.0567 35.0498 15.7792 35.0498 16.6217V27.9377C35.0498 28.8789 34.2858 29.6424 33.3475 29.6424H30.8207C28.8092 29.6925 29.0775 32.0088 29.314 33.3734C28.1331 32.7389 27.2146 31.5732 26.4824 30.4469C26.1793 29.9429 25.6533 29.6424 25.0773 29.6424H16.6419C16.1948 29.6424 15.834 30.0052 15.834 30.4514C15.834 30.8992 16.1963 31.2605 16.6419 31.2605L25.1017 31.2863C25.9839 32.616 28.3607 35.9085 30.1615 34.7532C31.456 33.9609 30.6192 32.5143 30.8208 31.2605H33.3477C35.1788 31.2605 36.6673 29.7684 36.6673 27.9362V16.6201C36.6673 14.9777 35.4441 13.5646 33.8222 13.3338L33.822 13.3354Z" fill="black"/>
</g>
</svg>

<svg xmlns="http://www.w3.org/2000/svg" fill="none" viewBox="0 0 40 40"><path fill="#334AFF" d="M27.688 26.755c2.192 0 3.979-1.804 3.979-4.022V9.022C31.667 6.806 29.882 5 27.688 5l-19.542.03c-2.192 0-3.979 1.804-3.979 4.022v13.711c0 2.216 1.785 4.022 3.979 4.022h.69L8.699 29c-.32 3.541 1.827 2.835 3.115 1.93 1.563-1.097 2.853-2.491 3.872-4.177l12.002.001ZM12.096 17.35c-1.914-.031-1.914-2.911 0-2.943 1.914.032 1.914 2.912 0 2.943Zm4.54-1.471c.032-1.935 2.881-1.935 2.912 0-.031 1.934-2.88 1.934-2.911 0Zm7.453 1.47c-1.914-.03-1.914-2.91 0-2.941 1.914.03 1.914 2.91 0 2.942Z"/><path fill="#000" d="M33.822 13.335c-1.06-.126-1.275 1.433-.227 1.603.829.119 1.455.841 1.455 1.684v11.316c0 .94-.764 1.704-1.703 1.704h-2.526c-2.012.05-1.744 2.367-1.507 3.731-1.18-.634-2.1-1.8-2.832-2.926a1.632 1.632 0 0 0-1.405-.805h-8.435a.808.808 0 0 0 0 1.619l8.46.025c.882 1.33 3.259 4.622 5.06 3.467 1.294-.792.457-2.239.659-3.492h2.527a3.326 3.326 0 0 0 3.32-3.325V16.62a3.332 3.332 0 0 0-2.846-3.286v.001Z"/></svg>
